SVG/XAI.svg

<svg xmlns="http://www.w3.org/2000/svg" width="226.777" height="226.777" viewBox="0 0 226.777 226.777"><path d="M113.366 0C50.756 0 0 50.756 0 113.366c0 62.612 50.756 113.368 113.367 113.368 62.612 0 113.368-50.756 113.368-113.368C226.734 50.756 175.978 0 113.366 0zm58.073 75.955l-7.748 7.75-7.749-7.75 7.749-7.75 7.748 7.75zm3.147 38.324l-7.749 7.747-28.481-28.481 7.747-7.752 28.483 28.486zM156.21 59.6l-46.46 46.461-7.754-7.746 46.467-46.466 7.747 7.751zm-42.675-6.711l7.749 7.75-28.478 28.48-7.752-7.748 28.481-28.482zm-38.319 3.146l7.75 7.748-7.75 7.751-7.749-7.751 7.749-7.748zm-16.357 15.23l46.462 46.459-7.747 7.755-46.465-46.466 7.75-7.748zm1.039 34.926l28.48 28.48-7.747 7.752-28.482-28.486 7.749-7.746zm-4.604 46.069l7.749-7.75 7.749 7.75-7.749 7.748-7.749-7.748zm15.229 16.358l46.463-46.463 7.753 7.746-46.468 46.466-7.748-7.749zm42.675 6.71l-7.75-7.752 28.481-28.479 7.751 7.746-28.482 28.485zm38.32-3.149l-7.75-7.749 7.75-7.748 7.75 7.748-7.75 7.749zm16.358-15.228l-46.463-46.462 7.746-7.752 46.467 46.467-7.75 7.747z"/></svg>

<svg version="1.1" id="Layer_1" xmlns="http://www.w3.org/2000/svg" xmlns:xlink="http://www.w3.org/1999/xlink" x="0px" y="0px"
	 width="226.777px" height="226.777px" viewBox="0 0 226.777 226.777" enable-background="new 0 0 226.777 226.777"
	 xml:space="preserve">
<path fill="#000000" d="M113.366,0C50.756,0,0,50.756,0,113.366c0,62.612,50.756,113.368,113.367,113.368
	c62.612,0,113.368-50.756,113.368-113.368C226.734,50.756,175.978,0,113.366,0z M171.439,75.955l-7.748,7.75l-7.749-7.75l7.749-7.75
	L171.439,75.955z M174.586,114.279l-7.749,7.747l-28.481-28.481l7.747-7.752L174.586,114.279z M156.21,59.6l-46.46,46.461
	l-7.754-7.746l46.467-46.466L156.21,59.6z M113.535,52.889l7.749,7.75l-28.478,28.48l-7.752-7.748L113.535,52.889z M75.216,56.035
	l7.75,7.748l-7.75,7.751l-7.749-7.751L75.216,56.035z M58.859,71.265l46.462,46.459l-7.747,7.755L51.109,79.013L58.859,71.265z
	 M59.898,106.191l28.48,28.48l-7.747,7.752l-28.482-28.486L59.898,106.191z M55.294,152.26l7.749-7.75l7.749,7.75l-7.749,7.748
	L55.294,152.26z M70.523,168.618l46.463-46.463l7.753,7.746l-46.468,46.466L70.523,168.618z M113.198,175.328l-7.75-7.752
	l28.481-28.479l7.751,7.746L113.198,175.328z M151.518,172.179l-7.75-7.749l7.75-7.748l7.75,7.748L151.518,172.179z
	 M167.876,156.951l-46.463-46.462l7.746-7.752l46.467,46.467L167.876,156.951z"/>
</svg>
